calendar-account-outline.svg

<svg fill="currentColor" viewBox="0 0 24 24"><path d="M19 3h-1V1h-2v2H8V1H6v2H5c-1.1 0-2 .9-2 2v14a2 2 0 0 0 2 2h14c1.11 0 2-.89 2-2V5a2 2 0 0 0-2-2m0 16H5V9h14zm0-12H5V5h14m-7 5c2 0 3 2.42 1.59 3.84-1.42 1.42-3.84.41-3.84-1.59C9.75 11 10.75 10 12 10m4.5 7.88V18h-9v-.12c0-1.25 2-2.25 4.5-2.25s4.5 1 4.5 2.25"/></svg>

<svg  viewBox="0 0 24 24" fill="currentColor"><path  d="M19 3H18V1H16V3H8V1H6V3H5C3.9 3 3 3.9 3 5V19C3 20.11 3.9 21 5 21H19C20.11 21 21 20.11 21 19V5C21 3.9 20.11 3 19 3M19 19H5V9H19V19M19 7H5V5H19M12 10C14 10 15 12.42 13.59 13.84C12.17 15.26 9.75 14.25 9.75 12.25C9.75 11 10.75 10 12 10M16.5 17.88V18H7.5V17.88C7.5 16.63 9.5 15.63 12 15.63S16.5 16.63 16.5 17.88Z"/></svg>
